X: 124
T: Dismissal Reel
T: Reel, G
C: Sandy MacLean
L: 1/16
M: C|
K: G
|: D2F2| G4B2d2 e2d2B2d2| b2g2a2b2 g2e2d2B2| G4B2d2 e2d2B2a2| g2e2d2B2 A4A2B2| 
G4B2d2 e2d2B2d2| b2g2a2b2 g2e2d2B2| G2A2B2d2 e2g2d2c2| B2G2A2F2 G4:| 
|: e2f2| g4f2g2 e2f2g2a2| b2g2a2b2 g2e2d2B2| G4B2d2 e2d2B2a2| g2e2d2B2 A4
[1 e2f2| g4f2g2 e2f2g2a2| b2g2a2b2 g2e2d2B2| G2A2B2d2 e2g2d2c2| B2G2A2F2 G4:| 
[2 B2A2| G4B2d2 e2d2B2d2| b2g2a2b2 g2e2d2B2| G2A2B2d2 e2g2d2c2| B2G2A2F2 G4|] 
D: Wendy MacIsaac, That's What You Get, WMT004
